X:1
T:Title
%%score { ( 1 3 ) | 2 }
L:1/8
M:4/4
K:D
V:1 treble nm="Grand Piano"
V:3 treble 
V:2 bass 
V:1
 z4 z2 z[Q:1/4=90] [FA] | [FA][FA][FA][FA] [DF] [FA]2 [Fd] | ddcB [FA]3 [DA] | %3
 [CA][CE][CE][DF] [EG] [EG]2 F | EEBB [CA]A[E^GB][E=Gc] | [DFd]2 [Fd]2 [Fd] [FA]2 [FA] | %6
 [DGB][DGB][DGB][EGB] [A,FA]3 [A,CG] | [A,DF][A,DF][EG][FA] [GB] [Ge]2 [Gd] | ccBc [Fd]4 | A4 B4 | %10
 z4 A4 | G4 F4 | EA^GB [CA]A[EGB][E=Gc] | [DFd]2 [Fd]2 [Fd] [FA]2 [FA] | %14
 [DGB][DGB][DGB][EGB] [A,FA]3 [A,CG] | [A,DF][A,DF][EG][FA] [GB] [Ge]2 [Gd] |[M:7/8] ccB c [Fd]3 |] %17
V:2
 z4 z2 z [D,D] | [D,D][D,D][D,D][D,D] [D,A,] [D,D]2 [D,=C] | %2
 [G,B,G][G,B,G][G,CG][G,DG][K:bass] [D,D]3 [D,F,] | %3
 [A,,E,][A,,A,][A,,A,][A,,A,] [A,,A,] [A,,A,]2 [D,A,D] | %4
 [E,A,C][E,A,C][E,^G,E][E,G,D] [A,,E,]A,E,A, | D,2 [D,A,]2 [D,A,] [D,D]2 [D,D] | %6
 G,,A,,B,,C, D,3 E, | F,D,[D,D][D,D] [G,D] [G,B,]2 [E,E] | %8
 [A,EG][A,EG][A,DG][A,EG][K:bass] [D,D]4 | [D,D]2 [D,D]2[K:treble] [G,DG]2 [G,D]2 | %10
 [D,D][D,A,][D,B,][D,C] [D,D][D,D] [D,D]2 | [C,A,]2 [C,A,]2 [D,A,D]2 [D,A,]2 | %12
 [E,A,C][E,A,C][E,B,E][E,^G,D] [A,,E,]A,E,A, | D,2 [D,A,]2 [D,A,] [D,D]2 [D,D] | %14
 G,,A,,B,,C, D,3 E, | F,D,[D,D][D,D] [G,D] [G,B,]2 [E,E] | %16
[M:7/8][K:treble] [A,EG][A,EG][A,DG] [A,EG][K:bass] [D,D]3 |] %17
V:3
 x8 | x8 | x8 | x8 | x8 | x8 | x8 | x8 | x8 | F2 F2 z2 G2 | [FA][Fd][Ac][GB] FF F2 | E2 E2 z2 D2 | %12
 x8 | x8 | x8 | x8 |[M:7/8] x7 |] %17

